X:27
T: Le, le, letörött
O: Oroszlány (Komárom), Jankó Miklós (44), 1952.10
Q: "Tempo guisto" 1/4=110
M:4/4
L:1/4
K:Eb
G c G/F/E/D/ | C<E G<F | C2 C z | 
ecdc | GB F<A | G2 G z | 
e c/c/ d<c | G>B F<A | G2 F z | 
G c G/F/E/D/ | C E G<F | C2 C z | 

